X: 7085
T: Christina's
R: jig
M: 6/8
K: Ddorian
|:d2A B2A|FED A2d|c2d B2d|cBA B2G|
A2d c2d|BAB d2e|fed cBc|dcA d3:|
|:a^fc g^fg|^fed c2A|c2d A2d|cBA B2G|
FGA cBA|BAG c2d|fed cBc|dcA d3:|
|:ADF DFA|BGA F2D|c2d B2d|cBA B2G|
FAc AcE|FAc DAg|fed cBc|dcA d3:|
|:d'ad' d'a d'|ef2 e2d|c2d B2d|cBA B2G|
Adf Afg|Aga Aea|fed cBc|dcA d3:|

